X: 1
T: Yakety Sax
N: Transposed
Z: https://www.norbeck.nu/abc/display.asp?rhythm=misc&ref=26
M:C|
L:1/8
K:C
A2 _B2=B2 |: c2c2 AGEE | GEA2 GEDC | C2CE-EGAG | c4 zGAG |
c2c2 AGEE | GEA2 GEDE | G2GA BdBA | G4 zGAG |
c2c2 c2c2 | c2c2 AGEC | F2F2 F2F2 | A2cd _ed2e |
=e=ded eg2d | ege=d cAG2 | a_e2c d2c2 |1 c4 zA_B=B :|2 c4 zd_e=e ||
K:F
f2e2 ^dede | =d2c2 =B2c^c | d2=c2 =BcBc | _B2A2 ^G2A2 |
F2F=G Acdc | f2f2 dcAF | c2cd ege2 | c4 zcdc |
f2f2 f2f2 | f2f2 dcAG | B2B2 B2B2 | dfgf _af3 |
F2FA-A2c2 | G2AB-Bcdc | f2f2 dcAG | F2 ||

